!!!OTL: Gute Nacht.
!!!OTL-incipit: GUTE NACHT MEINE WALLFAHRT IST VOLLBRACHT
!!!COM: Schuster
!!!ARE: Europa, Mitteleuropa, Deutschland
!!!SCT: F1066
!!!TXL: @@DE
!!!YEM: Copyright 1995, estate of Helmut Schaffrath.
**kern	**text
*ICvox	*
*clefG2	*
*M4/4	*
*met(c)	*
*k[f#c#g#d#]	*
*E:	*
=1	=1
!LO:TX:a:t=Adagio.	!
!LO:TX:a:t=P:only the highest voice encoded:problem	!
{2.b/	1._Gu-
4d#	-te
=2	=2
2e	Nacht!
4r}	.
{8.e	Mei-
16e	-ne
=3	=3
4.aSS	Wall-
8cc#/	-fahrt
(>4ee/	iſt
8dd#/)	.
8cc#/	voll-
=4	=4
2b/	-bracht.
4r}	.
{8.b/	Pa-
16b/	-ra-
=5	=5
4.b/	-die-
8b/	-ſes
(>4b/	Ruh'
8cc#/)	.
8dd#/	und
=6	=6
8.ee/L	Frie-
16bJ	.
4b/	-den
4r}	.
{8.b/	ſäu-
16b/	-ſeln
=7	=7
4.b/	um
8dd#/	den
8ff#/L	Le-
8dd#J	.
8bL	-bens-
8aJ	.
=8	=8
8aL	-mü-
8g#J	.
4g#	-den,
2r}	.
=9	=9
{4.ee	Tod,
8g#	wo
8.e	iſt
16e	nun
8.ddn/	dei-
16ddn/	-ne
=10	=10
2cc#/	Macht?
2r}	.
=11	=11
{2.b/	Gu-
4a	-te
=12	=12
2g#	Nacht,
2r	.
=13	=13
2.b/	gu-
4d#	-te
=14	=14
2e	Nacht!
2r}	.
==	==
!!!AGN: Trost - Lied
!!!ONB: ESAC (Essen Associative Code) Database: FINK
!!!AMT: simple quadruple
!!!AIN: vox
!!!EED: Helmut Schaffrath
!!!EEV: 1.0
!!!RDF**kern: > = above
!!!GTL: Trauer- Begraebniss- und Trostlieder
!!!URL-scan: https://www.digitale-sammlungen.de/en/view/bsb11144622?page=674
!!!ENC: Anna Maria Matuszewska
!!!EEV: 2024/08/09
*-	*-
